static/images/logo/HPI-Schul-Cloud_Wort-Bildmarke-Banner_transparent.svg

<?xml version="1.0" encoding="UTF-8"?>
<svg width="340px" height="60px" viewBox="0 0 340 60" version="1.1" xmlns="http://www.w3.org/2000/svg" xmlns:xlink="http://www.w3.org/1999/xlink">
    <!-- Generator: Sketch 54.1 (76490) - https://sketchapp.com -->
    <title>HPI-Schul-Cloud_Wort-Bildmarke-Banner_transparent</title>
    <desc>Created with Sketch.</desc>
    <defs>
        <linearGradient x1="4.98680667%" y1="51.0097527%" x2="95.0769146%" y2="48.9887945%" id="linearGradient-1">
            <stop stop-color="#B1063A" offset="0%"></stop>
            <stop stop-color="#F6A800" offset="100%"></stop>
        </linearGradient>
        <path d="M51.159,0 C50.945,0.002 50.731,0.006 50.517,0.014 L50.517,0.014 C41.922,0.314 33.427,5.305 32.127,13.391 L32.127,13.391 C23.832,10.097 16.036,14.49 16.036,21.977 L16.036,21.977 C0.745,18.981 -3.352,32.558 2.643,37.051 L2.643,37.051 C6.841,40.644 12.238,39.945 19.135,39.945 L19.135,39.945 L58.912,39.945 L64.608,39.945 C73.103,39.945 80,34.255 80,27.167 L80,27.167 C80,23.651 78.226,20.361 75.253,18.018 L75.253,18.018 L66.294,26.966 C66.082,27.179 65.587,27.531 65.232,27.6 L65.232,27.6 L55.172,31.67 C54.929,31.79 54.686,31.822 54.449,31.815 L54.449,31.815 C53.202,32.913 50.514,33.995 49.814,34.099 L49.814,34.099 C47.149,34.494 45.497,32.788 43.746,30.978 L43.746,30.978 C42.621,29.816 41.456,28.613 40.003,28.034 L40.003,28.034 C39.551,27.854 39.118,27.773 38.698,27.773 L38.698,27.773 C36.795,27.773 35.195,29.421 33.753,30.905 L33.753,30.905 C33.203,31.471 32.684,32.004 32.182,32.412 L32.182,32.412 C30.661,33.65 29.151,34.218 27.719,34.119 L27.719,34.119 C26.054,33.999 24.84,32.861 23.831,31.805 L23.831,31.805 L23.648,31.611 C22.549,30.452 21.306,29.139 19.53,29.803 L19.53,29.803 C18.635,30.14 17.842,30.799 17.335,31.293 L17.335,31.293 C17.195,31.429 17.065,31.575 16.933,31.723 L16.933,31.723 C16.611,32.083 16.306,32.423 15.879,32.615 L15.879,32.615 C15.55,32.761 15.144,32.75 14.85,32.583 L14.85,32.583 C14.681,32.488 14.471,32.3 14.429,31.944 L14.429,31.944 C14.363,31.393 14.818,31.025 15.255,30.669 L15.255,30.669 C15.328,30.61 15.398,30.553 15.465,30.495 L15.465,30.495 L15.827,30.183 C16.872,29.278 17.953,28.342 19.317,27.955 L19.317,27.955 C21.188,27.43 22.797,28.376 23.818,29.266 L23.818,29.266 C24.146,29.551 24.467,29.893 24.806,30.257 L24.806,30.257 C25.703,31.219 26.632,32.212 27.904,32.363 L27.904,32.363 C29.803,32.589 31.432,30.916 32.509,29.811 L32.509,29.811 L32.627,29.689 C33.898,28.385 35.097,27.152 36.815,26.475 L36.815,26.475 C38.434,25.838 40.177,26.041 41.85,27.065 L41.85,27.065 C42.872,27.693 43.704,28.568 44.509,29.414 L44.509,29.414 C45.023,29.956 45.555,30.517 46.138,31.014 L46.138,31.014 C47.84,32.465 49.445,32.708 51.189,31.779 L51.189,31.779 C51.416,31.658 51.696,31.445 52.023,31.198 L52.023,31.198 C52.313,30.979 52.637,30.737 52.966,30.528 L52.966,30.528 C52.917,30.234 52.951,29.918 53.105,29.605 L53.105,29.605 L57.18,19.557 C57.249,19.202 57.602,18.708 57.813,18.496 L57.813,18.496 L67.594,8.727 C64.13,2.7 57.841,0.048 51.503,0 L51.503,0 L51.159,0 Z M60.5,19.344 C59.935,19.908 59.156,20.12 58.521,20.049 L58.521,20.049 L56.685,25.274 L59.51,28.096 L64.74,26.261 C64.668,25.625 64.881,24.848 65.445,24.284 L65.445,24.284 L73.126,16.613 C72.536,16.292 71.911,16.01 71.262,15.757 L71.262,15.757 L64.085,22.925 C63.577,23.432 62.986,23.772 62.418,23.883 L62.418,23.883 C61.924,23.978 61.517,23.888 61.258,23.632 L61.258,23.632 C60.674,23.048 60.991,21.78 61.965,20.807 L61.965,20.807 L69.478,13.302 C69.271,12.532 69.024,11.803 68.748,11.105 L68.748,11.105 L60.5,19.344 Z" id="path-2"></path>
        <linearGradient x1="-0.000332007891%" y1="50.000197%" x2="100%" y2="50.000197%" id="linearGradient-4">
            <stop stop-color="#B1053A" offset="0%"></stop>
            <stop stop-color="#F6A800" offset="100%"></stop>
        </linearGradient>
    </defs>
    <g id="HPI-Schul-Cloud_Wort-Bildmarke-Banner_transparent" stroke="none" stroke-width="1" fill="none" fill-rule="evenodd">
        <g id="Logo" transform="translate(12.000000, 10.000000)">
            <g id="TXT" transform="translate(0.000000, 9.000000)" fill-rule="nonzero">
                <path d="M18.546,24.123 C18.546,24.486 18.249,24.783 17.886,24.783 L14.619,24.783 C14.256,24.783 13.959,24.486 13.959,24.123 L13.959,14.025 L4.587,14.025 L4.587,24.123 C4.587,24.486 4.29,24.783 3.927,24.783 L0.66,24.783 C0.297,24.783 0,24.486 0,24.123 L0,0.891 C0,0.528 0.297,0.264 0.66,0.264 L3.927,0.264 C4.29,0.264 4.587,0.528 4.587,0.891 L4.587,9.999 L13.959,9.999 L13.959,0.891 C13.959,0.528 14.256,0.264 14.619,0.264 L17.886,0.264 C18.249,0.264 18.546,0.528 18.546,0.891 L18.546,24.123 Z M40.566,7.92 C40.566,13.761 36.144,15.642 31.062,15.642 C30.204,15.642 28.884,15.543 28.125,15.51 L28.125,24.123 C28.125,24.486 27.861,24.783 27.498,24.783 L24.198,24.783 C23.835,24.783 23.538,24.486 23.538,24.123 L23.538,1.419 C23.538,0.759 23.934,0.528 24.594,0.429 C26.31,0.165 28.653,0 31.062,0 C36.144,0 40.566,1.782 40.566,7.623 L40.566,7.92 Z M36.012,7.92 L36.012,7.623 C36.012,4.851 34.362,3.795 31.062,3.795 C30.369,3.795 28.719,3.861 28.125,3.927 L28.125,11.781 C28.653,11.814 30.501,11.88 31.062,11.88 C34.626,11.88 36.012,10.56 36.012,7.92 Z M49.0065,24.123 C49.0065,24.486 48.7095,24.783 48.3465,24.783 L45.0795,24.783 C44.7165,24.783 44.4195,24.486 44.4195,24.123 L44.4195,0.891 C44.4195,0.528 44.7165,0.264 45.0795,0.264 L48.3465,0.264 C48.7095,0.264 49.0065,0.528 49.0065,0.891 L49.0065,24.123 Z" id="HPI" fill="#B1063A"></path>
                <path d="M162.4635,18.447 C162.4635,21.615 160.8135,25.047 154.3125,25.047 C152.0025,25.047 150.2865,24.816 148.8345,24.585 C148.2735,24.486 148.2075,24.354 148.2075,23.991 L148.2075,22.671 C148.2075,22.308 148.4715,22.143 148.7685,22.143 L148.8675,22.143 C150.3855,22.275 152.7945,22.341 154.3125,22.341 C158.2725,22.341 159.3285,20.757 159.3285,18.447 C159.3285,16.797 158.3715,15.873 155.3685,14.025 L152.1675,12.078 C149.1315,10.23 147.6135,8.547 147.6135,5.907 C147.6135,1.914 150.4845,0.066 155.5005,0.066 C157.4475,0.066 159.9885,0.264 161.2425,0.462 C161.5725,0.528 161.8035,0.693 161.8035,1.023 L161.8035,2.442 C161.8035,2.772 161.5725,2.97 161.2425,2.97 L161.1765,2.97 C159.7245,2.871 157.4145,2.772 155.5005,2.772 C152.1015,2.772 150.6495,3.498 150.6495,5.907 C150.6495,7.458 151.7385,8.382 154.2465,9.9 L157.2825,11.715 C161.1105,13.992 162.4635,15.807 162.4635,18.447 Z M177.9828,23.958 C177.9828,24.387 177.8508,24.585 177.3228,24.684 C176.2338,24.882 174.7488,25.047 173.1978,25.047 C168.7098,25.047 166.1688,21.879 166.1688,17.028 L166.1688,14.454 C166.1688,9.603 168.6768,6.435 173.1978,6.435 C174.7158,6.435 176.2338,6.6 177.3228,6.798 C177.8508,6.897 177.9828,7.062 177.9828,7.524 L177.9828,8.712 C177.9828,9.042 177.7188,9.207 177.4218,9.207 L177.2898,9.207 C175.8378,9.042 174.8148,8.976 173.1978,8.976 C170.5578,8.976 169.0728,10.725 169.0728,14.454 L169.0728,17.028 C169.0728,20.724 170.5248,22.506 173.1978,22.506 C174.8148,22.506 175.8378,22.44 177.2898,22.275 L177.4218,22.275 C177.7188,22.275 177.9828,22.44 177.9828,22.77 L177.9828,23.958 Z M195.6108,24.156 C195.6108,24.519 195.3138,24.816 194.9508,24.816 L193.3668,24.816 C193.0038,24.816 192.7068,24.519 192.7068,24.156 L192.7068,13.299 C192.7068,9.999 191.3208,8.976 189.1758,8.976 C188.1528,8.976 186.0738,9.24 184.6218,9.9 L184.6218,24.156 C184.6218,24.486 184.3248,24.816 183.9618,24.816 L182.3448,24.816 C182.0148,24.816 181.7178,24.519 181.7178,24.156 L181.7178,0.66 C181.7178,0.297 181.9818,0 182.3448,0 L183.9948,0 C184.3578,0 184.6218,0.297 184.6218,0.66 L184.6218,7.458 C186.2058,6.765 188.2518,6.435 189.6708,6.435 C193.1688,6.435 195.6108,8.448 195.6108,13.299 L195.6108,24.156 Z M214.0308,24.156 C214.0308,24.519 213.7668,24.816 213.4038,24.816 L211.7538,24.816 C211.3908,24.816 211.1268,24.519 211.1268,24.156 L211.1268,23.529 C209.3118,24.552 207.8268,25.047 205.8798,25.047 C201.9198,25.047 200.1378,22.572 200.1378,18.183 L200.1378,7.326 C200.1378,6.963 200.4348,6.666 200.7978,6.666 L202.3818,6.666 C202.7448,6.666 203.0418,6.963 203.0418,7.326 L203.0418,18.183 C203.0418,21.516 204.1638,22.539 206.6718,22.539 C208.0578,22.539 209.6088,22.011 211.1268,21.252 L211.1268,7.326 C211.1268,6.996 211.4238,6.666 211.7868,6.666 L213.4038,6.666 C213.7338,6.666 214.0308,6.963 214.0308,7.326 L214.0308,24.156 Z M221.7918,24.156 C221.7918,24.486 221.5608,24.816 221.1978,24.816 L219.4818,24.816 C219.1518,24.816 218.8878,24.519 218.8878,24.156 L218.8878,0.627 C218.8878,0.297 219.1188,0 219.4818,0 L221.1978,0 C221.5278,0 221.7918,0.264 221.7918,0.627 L221.7918,24.156 Z M234.0177,15.807 C234.0177,16.137 233.7537,16.368 233.3907,16.368 L226.8237,16.368 C226.4607,16.368 226.1967,16.17 226.1967,15.807 L226.1967,14.52 C226.1967,14.19 226.4607,13.926 226.8237,13.926 L233.3907,13.926 C233.7537,13.926 234.0177,14.157 234.0177,14.52 L234.0177,15.807 Z M253.0416,23.958 C253.0416,24.354 252.7446,24.552 252.3816,24.618 C250.9956,24.882 249.7086,25.047 246.9036,25.047 C242.8446,25.047 238.1916,22.869 238.1916,14.85 L238.1916,10.263 C238.1916,2.178 242.8446,0.066 246.9036,0.066 C248.9826,0.066 250.9956,0.363 252.4476,0.594 C252.7446,0.627 252.9756,0.726 252.9756,1.023 L252.9756,2.706 C252.9756,2.904 252.9096,3.069 252.5796,3.069 L252.4806,3.069 C251.2926,2.97 248.8506,2.772 246.9366,2.772 C243.7026,2.772 241.1946,4.653 241.1946,10.263 L241.1946,14.85 C241.1946,20.394 243.7026,22.341 246.9366,22.341 C248.8176,22.341 251.1936,22.176 252.3816,22.077 L252.5136,22.077 C252.8766,22.077 253.0416,22.242 253.0416,22.605 L253.0416,23.958 Z M259.872,24.156 C259.872,24.486 259.641,24.816 259.278,24.816 L257.562,24.816 C257.232,24.816 256.968,24.519 256.968,24.156 L256.968,0.627 C256.968,0.297 257.199,0 257.562,0 L259.278,0 C259.608,0 259.872,0.264 259.872,0.627 L259.872,24.156 Z M278.7903,16.995 C278.7903,21.846 276.2823,25.047 271.4313,25.047 C266.5803,25.047 264.1053,21.846 264.1053,16.995 L264.1053,14.487 C264.1053,9.636 266.5803,6.435 271.4313,6.435 C276.2823,6.435 278.7903,9.636 278.7903,14.487 L278.7903,16.995 Z M275.8863,16.995 L275.8863,14.487 C275.8863,11.121 274.5333,8.976 271.4313,8.976 C268.3623,8.976 267.0093,11.088 267.0093,14.487 L267.0093,16.995 C267.0093,20.361 268.3293,22.506 271.4313,22.506 C274.5003,22.506 275.8863,20.394 275.8863,16.995 Z M296.7417,24.156 C296.7417,24.519 296.4777,24.816 296.1147,24.816 L294.4647,24.816 C294.1017,24.816 293.8377,24.519 293.8377,24.156 L293.8377,23.529 C292.0227,24.552 290.5377,25.047 288.5907,25.047 C284.6307,25.047 282.8487,22.572 282.8487,18.183 L282.8487,7.326 C282.8487,6.963 283.1457,6.666 283.5087,6.666 L285.0927,6.666 C285.4557,6.666 285.7527,6.963 285.7527,7.326 L285.7527,18.183 C285.7527,21.516 286.8747,22.539 289.3827,22.539 C290.7687,22.539 292.3197,22.011 293.8377,21.252 L293.8377,7.326 C293.8377,6.996 294.1347,6.666 294.4977,6.666 L296.1147,6.666 C296.4447,6.666 296.7417,6.963 296.7417,7.326 L296.7417,24.156 Z M314.8449,23.727 C314.8449,24.156 314.7459,24.387 314.1519,24.486 C312.1059,24.882 310.0929,25.047 308.0799,25.047 C303.1629,25.047 300.8859,21.846 300.8859,16.896 L300.8859,14.52 C300.8859,9.339 303.2619,6.435 308.0799,6.435 C309.1029,6.435 310.6539,6.534 311.9409,6.765 L311.9409,0.627 C311.9409,0.297 312.2049,0 312.5679,0 L314.2509,0 C314.5809,0 314.8449,0.264 314.8449,0.627 L314.8449,23.727 Z M311.9409,22.308 L311.9409,9.207 C310.8519,9.009 309.1359,8.976 308.0799,8.976 C304.8459,8.976 303.7899,10.989 303.7899,14.52 L303.7899,16.896 C303.7899,20.493 304.8129,22.506 308.0799,22.506 C309.2019,22.506 310.8189,22.407 311.9409,22.308 Z" id="Schul-Cloud" fill="url(#linearGradient-1)"></path>
            </g>
            <path d="M109.516794,0.0143186362 C100.920794,0.313318636 92.4257943,5.30531864 91.1267943,13.3913186 C82.8307943,10.0973186 75.0367943,14.4893186 75.0367943,21.9763186 C59.7447943,18.9813186 55.6467943,32.5573186 61.6437943,37.0503186 C65.8407943,40.6433186 71.2387943,39.9453186 78.1337943,39.9453186 L117.912794,39.9453186 L123.608794,39.9453186 C132.103794,39.9453186 138.999794,34.2553186 138.999794,27.1673186 C138.999794,21.8763186 135.001794,17.0843186 128.905794,15.2873186 L128.905794,15.1883186 C126.906794,4.10731864 118.111794,-0.285681364 109.516794,0.0143186362" id="BG-Cloud" fill="#FFFFFF"></path>
            <g id="Bildmarke" transform="translate(59.000000, 0.000000)">
                <mask id="mask-3" fill="white">
                    <use xlink:href="#path-2"></use>
                </mask>
                <g id="Clip-2"></g>
                <path d="M51.159,0 C50.945,0.002 50.731,0.006 50.517,0.014 L50.517,0.014 C41.922,0.314 33.427,5.305 32.127,13.391 L32.127,13.391 C23.832,10.097 16.036,14.49 16.036,21.977 L16.036,21.977 C0.745,18.981 -3.352,32.558 2.643,37.051 L2.643,37.051 C6.841,40.644 12.238,39.945 19.135,39.945 L19.135,39.945 L58.912,39.945 L64.608,39.945 C73.103,39.945 80,34.255 80,27.167 L80,27.167 C80,23.651 78.226,20.361 75.253,18.018 L75.253,18.018 L66.294,26.966 C66.082,27.179 65.587,27.531 65.232,27.6 L65.232,27.6 L55.172,31.67 C54.929,31.79 54.686,31.822 54.449,31.815 L54.449,31.815 C53.202,32.913 50.514,33.995 49.814,34.099 L49.814,34.099 C47.149,34.494 45.497,32.788 43.746,30.978 L43.746,30.978 C42.621,29.816 41.456,28.613 40.003,28.034 L40.003,28.034 C39.551,27.854 39.118,27.773 38.698,27.773 L38.698,27.773 C36.795,27.773 35.195,29.421 33.753,30.905 L33.753,30.905 C33.203,31.471 32.684,32.004 32.182,32.412 L32.182,32.412 C30.661,33.65 29.151,34.218 27.719,34.119 L27.719,34.119 C26.054,33.999 24.84,32.861 23.831,31.805 L23.831,31.805 L23.648,31.611 C22.549,30.452 21.306,29.139 19.53,29.803 L19.53,29.803 C18.635,30.14 17.842,30.799 17.335,31.293 L17.335,31.293 C17.195,31.429 17.065,31.575 16.933,31.723 L16.933,31.723 C16.611,32.083 16.306,32.423 15.879,32.615 L15.879,32.615 C15.55,32.761 15.144,32.75 14.85,32.583 L14.85,32.583 C14.681,32.488 14.471,32.3 14.429,31.944 L14.429,31.944 C14.363,31.393 14.818,31.025 15.255,30.669 L15.255,30.669 C15.328,30.61 15.398,30.553 15.465,30.495 L15.465,30.495 L15.827,30.183 C16.872,29.278 17.953,28.342 19.317,27.955 L19.317,27.955 C21.188,27.43 22.797,28.376 23.818,29.266 L23.818,29.266 C24.146,29.551 24.467,29.893 24.806,30.257 L24.806,30.257 C25.703,31.219 26.632,32.212 27.904,32.363 L27.904,32.363 C29.803,32.589 31.432,30.916 32.509,29.811 L32.509,29.811 L32.627,29.689 C33.898,28.385 35.097,27.152 36.815,26.475 L36.815,26.475 C38.434,25.838 40.177,26.041 41.85,27.065 L41.85,27.065 C42.872,27.693 43.704,28.568 44.509,29.414 L44.509,29.414 C45.023,29.956 45.555,30.517 46.138,31.014 L46.138,31.014 C47.84,32.465 49.445,32.708 51.189,31.779 L51.189,31.779 C51.416,31.658 51.696,31.445 52.023,31.198 L52.023,31.198 C52.313,30.979 52.637,30.737 52.966,30.528 L52.966,30.528 C52.917,30.234 52.951,29.918 53.105,29.605 L53.105,29.605 L57.18,19.557 C57.249,19.202 57.602,18.708 57.813,18.496 L57.813,18.496 L67.594,8.727 C64.13,2.7 57.841,0.048 51.503,0 L51.503,0 L51.159,0 Z M60.5,19.344 C59.935,19.908 59.156,20.12 58.521,20.049 L58.521,20.049 L56.685,25.274 L59.51,28.096 L64.74,26.261 C64.668,25.625 64.881,24.848 65.445,24.284 L65.445,24.284 L73.126,16.613 C72.536,16.292 71.911,16.01 71.262,15.757 L71.262,15.757 L64.085,22.925 C63.577,23.432 62.986,23.772 62.418,23.883 L62.418,23.883 C61.924,23.978 61.517,23.888 61.258,23.632 L61.258,23.632 C60.674,23.048 60.991,21.78 61.965,20.807 L61.965,20.807 L69.478,13.302 C69.271,12.532 69.024,11.803 68.748,11.105 L68.748,11.105 L60.5,19.344 Z" id="Fill-1" fill="url(#linearGradient-4)" mask="url(#mask-3)"></path>
            </g>
        </g>
    </g>
</svg>

<svg xmlns="http://www.w3.org/2000/svg" xmlns:xlink="http://www.w3.org/1999/xlink" width="340" height="60"><defs><linearGradient id="a" x1="4.987%" x2="95.077%" y1="51.01%" y2="48.989%"><stop offset="0%" stop-color="#B1063A"/><stop offset="100%" stop-color="#F6A800"/></linearGradient><path id="b" d="M51.159 0c-.214.002-.428.006-.642.014-8.595.3-17.09 5.291-18.39 13.377-8.295-3.294-16.091 1.099-16.091 8.586C.745 18.981-3.352 32.558 2.643 37.051c4.198 3.593 9.595 2.894 16.492 2.894h45.473c8.495 0 15.392-5.69 15.392-12.778 0-3.516-1.774-6.806-4.747-9.149l-8.959 8.948c-.212.213-.707.565-1.062.634l-10.06 4.07c-.243.12-.486.152-.723.145-1.247 1.098-3.935 2.18-4.635 2.284-2.665.395-4.317-1.311-6.068-3.121-1.125-1.162-2.29-2.365-3.743-2.944a3.495 3.495 0 0 0-1.305-.261c-1.903 0-3.503 1.648-4.945 3.132-.55.566-1.069 1.099-1.571 1.507-1.521 1.238-3.031 1.806-4.463 1.707-1.665-.12-2.879-1.258-3.888-2.314l-.183-.194c-1.099-1.159-2.342-2.472-4.118-1.808-.895.337-1.688.996-2.195 1.49-.14.136-.27.282-.402.43-.322.36-.627.7-1.054.892-.329.146-.735.135-1.029-.032a.814.814 0 0 1-.421-.639c-.066-.551.389-.919.826-1.275.073-.059.143-.116.21-.174l.362-.312c1.045-.905 2.126-1.841 3.49-2.228 1.871-.525 3.48.421 4.501 1.311.328.285.649.627.988.991.897.962 1.826 1.955 3.098 2.106 1.899.226 3.528-1.447 4.605-2.552l.118-.122c1.271-1.304 2.47-2.537 4.188-3.214 1.619-.637 3.362-.434 5.035.59 1.022.628 1.854 1.503 2.659 2.349.514.542 1.046 1.103 1.629 1.6 1.702 1.451 3.307 1.694 5.051.765.227-.121.507-.334.834-.581.29-.219.614-.461.943-.67a1.502 1.502 0 0 1 .139-.923l4.075-10.048c.069-.355.422-.849.633-1.061l9.781-9.769C64.13 2.7 57.841.048 51.503 0h-.344zM60.5 19.344a2.477 2.477 0 0 1-1.979.705l-1.836 5.225 2.825 2.822 5.23-1.835a2.467 2.467 0 0 1 .705-1.977l7.681-7.671a16.243 16.243 0 0 0-1.864-.856l-7.177 7.168c-.508.507-1.099.847-1.667.958-.494.095-.901.005-1.16-.251-.584-.584-.267-1.852.707-2.825l7.513-7.505a20.272 20.272 0 0 0-.73-2.197L60.5 19.344z"/><linearGradient id="c" x1="0%" y1="50%" y2="50%"><stop offset="0%" stop-color="#B1053A"/><stop offset="100%" stop-color="#F6A800"/></linearGradient></defs><g fill="none" fill-rule="evenodd"><g fill-rule="nonzero"><path fill="#B1063A" d="M30.546 43.123c0 .363-.297.66-.66.66h-3.267a.662.662 0 0 1-.66-.66V33.025h-9.372v10.098c0 .363-.297.66-.66.66H12.66a.662.662 0 0 1-.66-.66V19.891c0-.363.297-.627.66-.627h3.267c.363 0 .66.264.66.627v9.108h9.372v-9.108c0-.363.297-.627.66-.627h3.267c.363 0 .66.264.66.627v23.232zm22.02-16.203c0 5.841-4.422 7.722-9.504 7.722-.858 0-2.178-.099-2.937-.132v8.613c0 .363-.264.66-.627.66h-3.3a.662.662 0 0 1-.66-.66V20.419c0-.66.396-.891 1.056-.99 1.716-.264 4.059-.429 6.468-.429 5.082 0 9.504 1.782 9.504 7.623v.297zm-4.554 0v-.297c0-2.772-1.65-3.828-4.95-3.828-.693 0-2.343.066-2.937.132v7.854c.528.033 2.376.099 2.937.099 3.564 0 4.95-1.32 4.95-3.96zm12.995 16.203c0 .363-.297.66-.66.66H57.08a.662.662 0 0 1-.66-.66V19.891c0-.363.297-.627.66-.627h3.267c.362 0 .66.264.66.627v23.232z"/><path fill="url(#a)" d="M162.464 18.447c0 3.168-1.65 6.6-8.151 6.6-2.31 0-4.026-.231-5.478-.462-.561-.099-.627-.231-.627-.594v-1.32c0-.363.263-.528.56-.528h.1c1.518.132 3.927.198 5.445.198 3.96 0 5.016-1.584 5.016-3.894 0-1.65-.958-2.574-3.96-4.422l-3.202-1.947c-3.036-1.848-4.554-3.531-4.554-6.171 0-3.993 2.871-5.841 7.887-5.841 1.947 0 4.488.198 5.743.396.33.066.56.231.56.561v1.419c0 .33-.23.528-.56.528h-.066a93.138 93.138 0 0 0-5.677-.198c-3.399 0-4.85.726-4.85 3.135 0 1.551 1.088 2.475 3.596 3.993l3.036 1.815c3.828 2.277 5.181 4.092 5.181 6.732zm15.519 5.511c0 .429-.132.627-.66.726a23.933 23.933 0 0 1-4.125.363c-4.488 0-7.03-3.168-7.03-8.019v-2.574c0-4.851 2.509-8.019 7.03-8.019 1.518 0 3.036.165 4.125.363.528.099.66.264.66.726v1.188c0 .33-.264.495-.561.495h-.132a32.18 32.18 0 0 0-4.092-.231c-2.64 0-4.125 1.749-4.125 5.478v2.574c0 3.696 1.452 5.478 4.125 5.478 1.617 0 2.64-.066 4.092-.231h.132c.297 0 .56.165.56.495v1.188zm17.628.198c0 .363-.297.66-.66.66h-1.584a.662.662 0 0 1-.66-.66V13.299c0-3.3-1.386-4.323-3.531-4.323-1.023 0-3.102.264-4.554.924v14.256c0 .33-.297.66-.66.66h-1.617c-.33 0-.627-.297-.627-.66V.66c0-.363.264-.66.627-.66h1.65c.363 0 .627.297.627.66v6.798c1.584-.693 3.63-1.023 5.049-1.023 3.498 0 5.94 2.013 5.94 6.864v10.857zm18.42 0c0 .363-.264.66-.627.66h-1.65c-.363 0-.627-.297-.627-.66v-.627c-1.815 1.023-3.3 1.518-5.247 1.518-3.96 0-5.742-2.475-5.742-6.864V7.326c0-.363.297-.66.66-.66h1.584c.363 0 .66.297.66.66v10.857c0 3.333 1.122 4.356 3.63 4.356 1.386 0 2.937-.528 4.455-1.287V7.326c0-.33.297-.66.66-.66h1.617c.33 0 .627.297.627.66v16.83zm7.76 0c0 .33-.23.66-.593.66h-1.716c-.33 0-.594-.297-.594-.66V.627c0-.33.23-.627.594-.627h1.716c.33 0 .594.264.594.627v23.529zm12.227-8.349c0 .33-.264.561-.627.561h-6.567c-.363 0-.627-.198-.627-.561V14.52c0-.33.264-.594.627-.594h6.567c.363 0 .627.231.627.594v1.287zm19.024 8.151c0 .396-.297.594-.66.66-1.386.264-2.673.429-5.478.429-4.06 0-8.712-2.178-8.712-10.197v-4.587c0-8.085 4.653-10.197 8.712-10.197 2.079 0 4.092.297 5.544.528.297.033.528.132.528.429v1.683c0 .198-.066.363-.396.363h-.1c-1.187-.099-3.63-.297-5.543-.297-3.234 0-5.742 1.881-5.742 7.491v4.587c0 5.544 2.508 7.491 5.742 7.491 1.88 0 4.257-.165 5.445-.264h.132c.363 0 .528.165.528.528v1.353zm6.83.198c0 .33-.231.66-.594.66h-1.716c-.33 0-.594-.297-.594-.66V.627c0-.33.231-.627.594-.627h1.716c.33 0 .594.264.594.627v23.529zm18.918-7.161c0 4.851-2.508 8.052-7.359 8.052-4.85 0-7.326-3.201-7.326-8.052v-2.508c0-4.851 2.475-8.052 7.326-8.052 4.851 0 7.36 3.201 7.36 8.052v2.508zm-2.904 0v-2.508c0-3.366-1.353-5.511-4.455-5.511-3.069 0-4.422 2.112-4.422 5.511v2.508c0 3.366 1.32 5.511 4.422 5.511 3.07 0 4.455-2.112 4.455-5.511zm20.856 7.161c0 .363-.264.66-.627.66h-1.65c-.363 0-.627-.297-.627-.66v-.627c-1.815 1.023-3.3 1.518-5.247 1.518-3.96 0-5.742-2.475-5.742-6.864V7.326c0-.363.297-.66.66-.66h1.584c.363 0 .66.297.66.66v10.857c0 3.333 1.122 4.356 3.63 4.356 1.386 0 2.937-.528 4.455-1.287V7.326c0-.33.297-.66.66-.66h1.617c.33 0 .627.297.627.66v16.83zm18.103-.429c0 .429-.1.66-.693.759a31.748 31.748 0 0 1-6.072.561c-4.917 0-7.194-3.201-7.194-8.151V14.52c0-5.181 2.376-8.085 7.194-8.085 1.023 0 2.574.099 3.86.33V.627c0-.33.265-.627.628-.627h1.683c.33 0 .594.264.594.627v23.1zm-2.904-1.419V9.207c-1.09-.198-2.805-.231-3.861-.231-3.234 0-4.29 2.013-4.29 5.544v2.376c0 3.597 1.023 5.61 4.29 5.61 1.122 0 2.739-.099 3.86-.198z" transform="translate(12 19)"/></g><path fill="#FFF" d="M121.517 10.014c-8.596.3-17.091 5.291-18.39 13.377-8.296-3.294-16.09 1.098-16.09 8.585-15.292-2.995-19.39 10.581-13.393 15.074 4.197 3.593 9.595 2.895 16.49 2.895h45.475c8.495 0 15.39-5.69 15.39-12.778 0-5.29-3.997-10.083-10.093-11.88v-.099c-2-11.08-10.794-15.474-19.39-15.174"/><g transform="translate(71 10)"><mask id="d" fill="#fff"><use xlink:href="#b"/></mask><path fill="url(#c)" d="M51.159 0c-.214.002-.428.006-.642.014-8.595.3-17.09 5.291-18.39 13.377-8.295-3.294-16.091 1.099-16.091 8.586C.745 18.981-3.352 32.558 2.643 37.051c4.198 3.593 9.595 2.894 16.492 2.894h45.473c8.495 0 15.392-5.69 15.392-12.778 0-3.516-1.774-6.806-4.747-9.149l-8.959 8.948c-.212.213-.707.565-1.062.634l-10.06 4.07c-.243.12-.486.152-.723.145-1.247 1.098-3.935 2.18-4.635 2.284-2.665.395-4.317-1.311-6.068-3.121-1.125-1.162-2.29-2.365-3.743-2.944a3.495 3.495 0 0 0-1.305-.261c-1.903 0-3.503 1.648-4.945 3.132-.55.566-1.069 1.099-1.571 1.507-1.521 1.238-3.031 1.806-4.463 1.707-1.665-.12-2.879-1.258-3.888-2.314l-.183-.194c-1.099-1.159-2.342-2.472-4.118-1.808-.895.337-1.688.996-2.195 1.49-.14.136-.27.282-.402.43-.322.36-.627.7-1.054.892-.329.146-.735.135-1.029-.032a.814.814 0 0 1-.421-.639c-.066-.551.389-.919.826-1.275.073-.059.143-.116.21-.174l.362-.312c1.045-.905 2.126-1.841 3.49-2.228 1.871-.525 3.48.421 4.501 1.311.328.285.649.627.988.991.897.962 1.826 1.955 3.098 2.106 1.899.226 3.528-1.447 4.605-2.552l.118-.122c1.271-1.304 2.47-2.537 4.188-3.214 1.619-.637 3.362-.434 5.035.59 1.022.628 1.854 1.503 2.659 2.349.514.542 1.046 1.103 1.629 1.6 1.702 1.451 3.307 1.694 5.051.765.227-.121.507-.334.834-.581.29-.219.614-.461.943-.67a1.502 1.502 0 0 1 .139-.923l4.075-10.048c.069-.355.422-.849.633-1.061l9.781-9.769C64.13 2.7 57.841.048 51.503 0h-.344zM60.5 19.344a2.477 2.477 0 0 1-1.979.705l-1.836 5.225 2.825 2.822 5.23-1.835a2.467 2.467 0 0 1 .705-1.977l7.681-7.671a16.243 16.243 0 0 0-1.864-.856l-7.177 7.168c-.508.507-1.099.847-1.667.958-.494.095-.901.005-1.16-.251-.584-.584-.267-1.852.707-2.825l7.513-7.505a20.272 20.272 0 0 0-.73-2.197L60.5 19.344z" mask="url(#d)"/></g></g></svg>
